assets/Guide dog/Flat/guide_dog_flat.svg

<svg width="32" height="32" viewBox="0 0 32 32" fill="none" xmlns="http://www.w3.org/2000/svg">
<path d="M15.54 21H12.54L14 29.74C14.03 29.89 14.16 30 14.31 30H16.75C16.91 30 17.03 29.86 17 29.71L15.54 21Z" fill="#D3883E"/>
<path d="M19.95 21H22.95L20.98 29.7597C20.95 29.8999 20.83 30 20.68 30H18.24C18.08 30 17.96 29.8598 18 29.6997L19.95 21Z" fill="#D3883E"/>
<path d="M28.31 22.52L27.14 21.74C27.06 21.69 27 21.59 27 21.49V18.0343L27.78 18.79C27.92 18.93 28 19.12 28 19.32V19.95C28 21.13 28.57 22.23 29.54 22.9C29.73 23.04 30 22.9 30 22.66V19.04C30 18.36 29.75 17.7 29.3 17.19L26.04 13.52L26.0386 13.5247C25.1979 12.5041 23.8903 11.8891 22.46 12L15.64 12.84C14.7868 12.9503 14.294 12.5148 13.9838 12.0126L14 11.5L13.53 11L12.28 7.87998C12.06 7.33998 11.54 6.97998 10.96 6.97998H9.02C7.25 6.97998 5.71 8.17998 5.28 9.89998L5.18 10.28C5.08 10.69 4.7 10.99 4.27 10.99H2.76C2.34 10.99 2 11.32 2 11.74V11.99C2 13.65 3.34 14.99 5 14.99H6.69C6.86 14.98 7 15.12 7 15.3V17.18C7 18.97 7.71 20.69 8.98 21.95L7.26 29.7C7.22 29.86 7.34 30 7.5 30H9.94C10.09 30 10.21 29.9 10.24 29.76L12 21.99L17.83 20.99L20.99 21.51C21.02 23.02 21.94 24.37 23.35 24.93L25.8 25.91C25.92 25.96 26 26.07 26 26.2V29.7306C26 29.9006 26.14 30.0406 26.31 30.0406H28.69C28.86 30.0406 29 29.9006 29 29.7306V23.83C29 23.3 28.74 22.81 28.31 22.52Z" fill="#F3AD61"/>
<path d="M12.3396 20.607L12 22H18.8424C19.6115 22 20.3507 21.8308 21 21.5224C21 20.6866 20.3208 20 19.4717 20H13.1088C12.7492 20 12.4295 20.2488 12.3396 20.607Z" fill="#FFDEA7"/>
<path d="M7 11.32C7 11.6 7.22 11.82 7.5 11.82C7.78 11.82 8 11.6 8 11.32V10.75C8 10.47 7.78 10.25 7.5 10.25C7.22 10.25 7 10.47 7 10.75V11.32Z" fill="#212121"/>
<path d="M2.75 12.48H3.25C3.66 12.48 4 12.15 4 11.73C4 11.32 3.66 10.98 3.25 10.98H2.75C2.34 10.98 2 11.32 2 11.73C2 12.15 2.34 12.48 2.75 12.48Z" fill="#212121"/>
<path d="M9 6.98999H12.56C13.29 6.98999 13.83 7.67999 13.65 8.38999L13.05 10.78C12.87 11.49 12.23 11.99 11.5 11.99C10.77 11.99 10.12 11.49 9.95 10.78L9 6.98999Z" fill="#D3883E"/>
<path d="M14 12.5C14 12.2239 14.2239 12 14.5 12C14.7761 12 15 12.2239 15 12.5V15.0854C15.5826 15.2913 16 15.8469 16 16.5C16 17.1531 15.5826 17.7087 15 17.9146V22C15 22.2761 14.7761 22.5 14.5 22.5C14.2239 22.5 14 22.2761 14 22V17.9146C13.5738 17.764 13.236 17.4262 13.0854 17H7C6.72386 17 6.5 16.7761 6.5 16.5C6.5 16.2239 6.72386 16 7 16H13.0854C13.236 15.5738 13.5738 15.236 14 15.0854V12.5Z" fill="#6D4534"/>
<path d="M14.9438 12.2499C15.071 12.495 14.9754 12.7968 14.7302 12.9239L6.98021 16.9439C6.73508 17.0711 6.43329 16.9755 6.30614 16.7303C6.17899 16.4852 6.27463 16.1834 6.51976 16.0563L14.2698 12.0362C14.5149 11.9091 14.8167 12.0047 14.9438 12.2499Z" fill="#00A6ED"/>
<path d="M13.53 11C13.63 11.25 13.76 11.66 13.99 12.02L17.86 7.09C17.91 7.03 17.98 6.99 18.06 6.99H21.4L14.11 16.28C13.94 16.5 13.98 16.81 14.19 16.98C14.28 17.05 14.39 17.09 14.5 17.09C14.65 17.09 14.8 17.02 14.89 16.9L22.5 7.21C22.68 6.98 22.71 6.68 22.58 6.42C22.46 6.16 22.2 6 21.91 6H18.06C17.67 6 17.32 6.17 17.08 6.48L13.53 11Z" fill="#9B9B9B"/>
</svg>

<svg xmlns="http://www.w3.org/2000/svg" width="32" height="32" fill="none"><path fill="#D3883E" d="M15.54 21h-3L14 29.74c.03.15.16.26.31.26h2.44c.16 0 .28-.14.25-.29L15.54 21ZM19.95 21h3l-1.97 8.76c-.03.14-.15.24-.3.24h-2.44a.24.24 0 0 1-.24-.3l1.95-8.7Z"/><path fill="#F3AD61" d="m28.31 22.52-1.17-.78a.308.308 0 0 1-.14-.25v-3.456l.78.756c.14.14.22.33.22.53v.63c0 1.18.57 2.28 1.54 2.95.19.14.46 0 .46-.24v-3.62c0-.68-.25-1.34-.7-1.85l-3.26-3.67-.001.005A4.202 4.202 0 0 0 22.46 12l-6.82.84c-.853.11-1.346-.325-1.656-.827L14 11.5l-.47-.5-1.25-3.12c-.22-.54-.74-.9-1.32-.9H9.02A3.85 3.85 0 0 0 5.28 9.9l-.1.38c-.1.41-.48.71-.91.71H2.76c-.42 0-.76.33-.76.75v.25c0 1.66 1.34 3 3 3h1.69c.17-.01.31.13.31.31v1.88c0 1.79.71 3.51 1.98 4.77L7.26 29.7c-.04.16.08.3.24.3h2.44c.15 0 .27-.1.3-.24L12 21.99l5.83-1 3.16.52a3.75 3.75 0 0 0 2.36 3.42l2.45.98c.12.05.2.16.2.29v3.53c0 .17.14.31.31.31h2.38c.17 0 .31-.14.31-.31v-5.9c0-.53-.26-1.02-.69-1.31Z"/><path fill="#FFDEA7" d="M12.34 20.607 12 22h6.842c.77 0 1.509-.17 2.158-.478 0-.835-.68-1.522-1.528-1.522h-6.363c-.36 0-.68.249-.77.607Z"/><path fill="#212121" d="M7 11.32c0 .28.22.5.5.5s.5-.22.5-.5v-.57c0-.28-.22-.5-.5-.5s-.5.22-.5.5v.57ZM2.75 12.48h.5a.749.749 0 1 0 0-1.5h-.5a.749.749 0 1 0 0 1.5Z"/><path fill="#D3883E" d="M9 6.99h3.56c.73 0 1.27.69 1.09 1.4l-.6 2.39c-.18.71-.82 1.21-1.55 1.21-.73 0-1.38-.5-1.55-1.21L9 6.99Z"/><path fill="#6D4534" d="M14 12.5a.5.5 0 0 1 1 0v2.585a1.5 1.5 0 0 1 0 2.83V22a.5.5 0 0 1-1 0v-4.085a1.504 1.504 0 0 1-.915-.915H7a.5.5 0 0 1 0-1h6.085c.151-.426.489-.764.915-.915V12.5Z"/><path fill="#00A6ED" d="M14.944 12.25a.5.5 0 0 1-.214.674l-7.75 4.02a.5.5 0 1 1-.46-.888l7.75-4.02a.5.5 0 0 1 .674.214Z"/><path fill="#9B9B9B" d="M13.53 11c.1.25.23.66.46 1.02l3.87-4.93c.05-.06.12-.1.2-.1h3.34l-7.29 9.29c-.17.22-.13.53.08.7a.493.493 0 0 0 .7-.08l7.61-9.69c.18-.23.21-.53.08-.79a.73.73 0 0 0-.67-.42h-3.85c-.39 0-.74.17-.98.48L13.53 11Z"/></svg>
